src/assets/img/chaparadio/pause.svg

<?xml version="1.0" encoding="UTF-8" standalone="no"?>
<svg
   height="19.267431"
   width="19.0464"
   version="1.1"
   id="svg1448"
   sodipodi:docname="pause.svg"
   inkscape:version="1.1 (c4e8f9ed74, 2021-05-24)"
   xmlns:inkscape="http://www.inkscape.org/namespaces/inkscape"
   xmlns:sodipodi="http://sodipodi.sourceforge.net/DTD/sodipodi-0.dtd"
   xmlns:xlink="http://www.w3.org/1999/xlink"
   xmlns="http://www.w3.org/2000/svg"
   xmlns:svg="http://www.w3.org/2000/svg">
  <sodipodi:namedview
     id="namedview1450"
     pagecolor="#505050"
     bordercolor="#eeeeee"
     borderopacity="1"
     inkscape:pageshadow="0"
     inkscape:pageopacity="0"
     inkscape:pagecheckerboard="0"
     showgrid="false"
     inkscape:zoom="31.209214"
     inkscape:cx="1.5540282"
     inkscape:cy="9.580504"
     inkscape:current-layer="svg1448" />
  <g
     transform="translate(1.9673,1.7383304)"
     id="g1410">
    <use
       height="25.1"
       transform="matrix(0.768,0,0,0.768,-1.9673,-1.7477)"
       width="24.799999"
       xlink:href="#sprite0"
       id="use1406"
       x="0"
       y="0" />
    <use
       height="8.75"
       transform="translate(3.5,3.5)"
       width="8.5"
       xlink:href="#shape2"
       id="use1408"
       x="0"
       y="0" />
  </g>
  <defs
     id="defs1446">
    <g
       id="sprite0"
       transform="translate(-4.6,-4.3)">
      <use
         height="24.75"
         transform="translate(4.6,4.65)"
         width="24.799999"
         xlink:href="#shape0"
         id="use1412"
         x="0"
         y="0" />
      <use
         height="50"
         transform="matrix(-0.24,0,0,0.24,28.0998,4.3122)"
         width="50"
         xlink:href="#sprite1"
         id="use1414"
         x="0"
         y="0" />
    </g>
    <g
       id="shape0"
       transform="translate(-4.6,-4.65)">
      <path
         d="m 4.6,17.05 q 0,-5.15 3.65,-8.8 3.6,-3.65 8.75,-3.6 5.15,-0.05 8.8,3.6 3.6,3.65 3.6,8.8 0,5.1 -3.6,8.75 -3.65,3.6 -8.8,3.6 -5.15,0 -8.75,-3.6 Q 4.6,22.15 4.6,17.05"
         fill="url(#gradient0)"
         fill-rule="evenodd"
         stroke="none"
         id="path1417" />
      <path
         d="M 10.3,23.75 Q 7.5,20.95 7.5,17 q 0,-4 2.8,-6.75 2.8,-2.8 6.75,-2.8 3.95,0 6.75,2.8 2.8,2.8 2.85,6.75 -0.05,3.95 -2.85,6.75 -2.8,2.8 -6.75,2.8 -3.95,0 -6.75,-2.8"
         fill="url(#gradient1)"
         fill-rule="evenodd"
         stroke="none"
         id="path1419" />
    </g>
    <linearGradient
       gradientTransform="matrix(-0.0131,0.0068,-0.0054,-0.0104,-154.8,-314.95)"
       gradientUnits="userSpaceOnUse"
       id="gradient0"
       spreadMethod="pad"
       x1="-819.20001"
       x2="819.20001">
      <stop
         offset="0.0"
         stop-color="#8f0149"
         id="stop1422" />
      <stop
         offset="1.0"
         stop-color="#ff3399"
         id="stop1424" />
    </linearGradient>
    <linearGradient
       gradientTransform="matrix(-0.0035,0.0108,-0.0086,-0.0027,-257.75,-70.4)"
       gradientUnits="userSpaceOnUse"
       id="gradient1"
       spreadMethod="pad"
       x1="-819.20001"
       x2="819.20001">
      <stop
         offset="0.0"
         stop-color="#ff8ac5"
         id="stop1427" />
      <stop
         offset="1.0"
         stop-color="#ffffff"
         id="stop1429" />
    </linearGradient>
    <g
       id="sprite1"
       transform="translate(25,24.95)">
      <use
         height="50"
         transform="translate(-25,-24.95)"
         width="50"
         xlink:href="#shape1"
         id="use1432"
         x="0"
         y="0" />
    </g>
    <g
       id="shape1"
       transform="translate(25,24.95)">
      <path
         d="m 0,-24.95 q 10.3,0 17.6,7.3 7.35,7.35 7.4,17.7 -0.05,10.3 -7.4,17.6 Q 10.3,25 0,25.05 -10.35,25 -17.7,17.65 -25,10.35 -25,0.05 q 0,-10.35 7.3,-17.7 7.35,-7.3 17.7,-7.3"
         fill="url(#gradient2)"
         fill-rule="evenodd"
         stroke="none"
         id="path1435" />
    </g>
    <radialGradient
       cx="0"
       cy="0"
       gradientTransform="scale(0.0307)"
       gradientUnits="userSpaceOnUse"
       id="gradient2"
       r="819.20001"
       spreadMethod="pad">
      <stop
         offset="0.33725490196078434"
         stop-color="#ffffff"
         id="stop1438" />
      <stop
         offset="1.0"
         stop-color="#ffffff"
         stop-opacity="0.0"
         id="stop1440" />
    </radialGradient>
    <g
       id="shape2"
       transform="translate(-3.5,-3.5)">
      <path
         d="M 5.25,3.5 Q 6,3.5 6.5,4 7,4.5 7,5.25 V 10.5 Q 7,11.25 6.5,11.75 6,12.25 5.25,12.25 4.5,12.25 4,11.75 3.5,11.25 3.5,10.5 V 5.25 Q 3.5,4.5 4,4 4.5,3.5 5.25,3.5 m 6.75,7 q 0,0.75 -0.5,1.25 -0.5,0.5 -1.25,0.5 Q 9.5,12.25 9,11.75 8.5,11.25 8.5,10.5 V 5.25 Q 8.5,4.5 9,4 9.5,3.5 10.25,3.5 11,3.5 11.5,4 12,4.5 12,5.25 v 5.25"
         fill="#ff3399"
         fill-rule="evenodd"
         stroke="none"
         id="path1443" />
    </g>
  </defs>
</svg>

<?xml version="1.0" encoding="UTF-8" standalone="no"?>
<svg xmlns:xlink="http://www.w3.org/1999/xlink" height="26.05px" width="25.75px" xmlns="http://www.w3.org/2000/svg">
  <g transform="matrix(1.0, 0.0, 0.0, 1.0, 5.3, 5.2)">
    <use height="25.1" transform="matrix(0.768, 0.0, 0.0, 0.768, -1.9673, -1.7477)" width="24.8" xlink:href="#sprite0"/>
    <use height="8.75" transform="matrix(1.0, 0.0, 0.0, 1.0, 3.5, 3.5)" width="8.5" xlink:href="#shape2"/>
  </g>
  <defs>
    <g id="sprite0" transform="matrix(1.0, 0.0, 0.0, 1.0, -4.6, -4.3)">
      <use height="24.75" transform="matrix(1.0, 0.0, 0.0, 1.0, 4.6, 4.65)" width="24.8" xlink:href="#shape0"/>
      <use height="50.0" transform="matrix(-0.24, 0.0, 0.0, 0.24, 28.0998, 4.3122)" width="50.0" xlink:href="#sprite1"/>
    </g>
    <g id="shape0" transform="matrix(1.0, 0.0, 0.0, 1.0, -4.6, -4.65)">
      <path d="M4.6 17.05 Q4.6 11.9 8.25 8.25 11.85 4.6 17.0 4.65 22.15 4.6 25.8 8.25 29.4 11.9 29.4 17.05 29.4 22.15 25.8 25.8 22.15 29.4 17.0 29.4 11.85 29.4 8.25 25.8 4.6 22.15 4.6 17.05" fill="url(#gradient0)" fill-rule="evenodd" stroke="none"/>
      <path d="M10.3 23.75 Q7.5 20.95 7.5 17.0 7.5 13.0 10.3 10.25 13.1 7.45 17.05 7.45 21.0 7.45 23.8 10.25 26.6 13.05 26.65 17.0 26.6 20.95 23.8 23.75 21.0 26.55 17.05 26.55 13.1 26.55 10.3 23.75" fill="url(#gradient1)" fill-rule="evenodd" stroke="none"/>
    </g>
    <linearGradient gradientTransform="matrix(-0.0131, 0.0068, -0.0054, -0.0104, -154.8, -314.95)" gradientUnits="userSpaceOnUse" id="gradient0" spreadMethod="pad" x1="-819.2" x2="819.2">
      <stop offset="0.0" stop-color="#8f0149"/>
      <stop offset="1.0" stop-color="#ff3399"/>
    </linearGradient>
    <linearGradient gradientTransform="matrix(-0.0035, 0.0108, -0.0086, -0.0027, -257.75, -70.4)" gradientUnits="userSpaceOnUse" id="gradient1" spreadMethod="pad" x1="-819.2" x2="819.2">
      <stop offset="0.0" stop-color="#ff8ac5"/>
      <stop offset="1.0" stop-color="#ffffff"/>
    </linearGradient>
    <g id="sprite1" transform="matrix(1.0, 0.0, 0.0, 1.0, 25.0, 24.95)">
      <use height="50.0" transform="matrix(1.0, 0.0, 0.0, 1.0, -25.0, -24.95)" width="50.0" xlink:href="#shape1"/>
    </g>
    <g id="shape1" transform="matrix(1.0, 0.0, 0.0, 1.0, 25.0, 24.95)">
      <path d="M0.0 -24.95 Q10.3 -24.95 17.6 -17.65 24.95 -10.3 25.0 0.05 24.95 10.35 17.6 17.65 10.3 25.0 0.0 25.05 -10.35 25.0 -17.7 17.65 -25.0 10.35 -25.0 0.05 -25.0 -10.3 -17.7 -17.65 -10.35 -24.95 0.0 -24.95" fill="url(#gradient2)" fill-rule="evenodd" stroke="none"/>
    </g>
    <radialGradient cx="0" cy="0" gradientTransform="matrix(0.0307, 0.0, 0.0, 0.0307, 0.0, 0.0)" gradientUnits="userSpaceOnUse" id="gradient2" r="819.2" spreadMethod="pad">
      <stop offset="0.33725490196078434" stop-color="#ffffff"/>
      <stop offset="1.0" stop-color="#ffffff" stop-opacity="0.0"/>
    </radialGradient>
    <g id="shape2" transform="matrix(1.0, 0.0, 0.0, 1.0, -3.5, -3.5)">
      <path d="M5.25 3.5 Q6.0 3.5 6.5 4.0 7.0 4.5 7.0 5.25 L7.0 10.5 Q7.0 11.25 6.5 11.75 6.0 12.25 5.25 12.25 4.5 12.25 4.0 11.75 3.5 11.25 3.5 10.5 L3.5 5.25 Q3.5 4.5 4.0 4.0 4.5 3.5 5.25 3.5 M12.0 10.5 Q12.0 11.25 11.5 11.75 11.0 12.25 10.25 12.25 9.5 12.25 9.0 11.75 8.5 11.25 8.5 10.5 L8.5 5.25 Q8.5 4.5 9.0 4.0 9.5 3.5 10.25 3.5 11.0 3.5 11.5 4.0 12.0 4.5 12.0 5.25 L12.0 10.5" fill="#ff3399" fill-rule="evenodd" stroke="none"/>
    </g>
  </defs>
</svg>
